src/assets/icon/arrow_forward2.svg

<svg width="10" height="11" viewBox="0 0 10 11" fill="none" xmlns="http://www.w3.org/2000/svg">
<path d="M8.08467 6H0.5C0.358111 6 0.239333 5.95212 0.143667 5.85634C0.0478888 5.76067 0 5.64189 0 5.5C0 5.35812 0.0478888 5.23934 0.143667 5.14367C0.239333 5.04789 0.358111 5 0.5 5H8.08467L4.6385 1.55384C4.53939 1.45473 4.49044 1.33873 4.49167 1.20584C4.493 1.07295 4.54533 0.954783 4.64867 0.851338C4.75211 0.754783 4.86922 0.704783 5 0.701338C5.13078 0.697894 5.24789 0.747894 5.35133 0.851338L9.57817 5.07817C9.64061 5.14062 9.68461 5.20645 9.71017 5.27567C9.73583 5.34489 9.74867 5.41967 9.74867 5.5C9.74867 5.58034 9.73583 5.65512 9.71017 5.72434C9.68461 5.79356 9.64061 5.85939 9.57817 5.92184L5.35133 10.1487C5.259 10.241 5.14467 10.2882 5.00833 10.2903C4.872 10.2924 4.75211 10.2452 4.64867 10.1487C4.54533 10.0452 4.49367 9.92645 4.49367 9.79234C4.49367 9.65812 4.54533 9.53928 4.64867 9.43584L8.08467 6Z" fill="black"/>
</svg>

<svg xmlns="http://www.w3.org/2000/svg" width="10" height="11" fill="none" xmlns:v="https://vecta.io/nano"><path d="M8.085 6H.5c-.142 0-.261-.048-.356-.144S0 5.642 0 5.5s.048-.261.144-.356S.358 5 .5 5h7.585L4.639 1.554a.47.47 0 0 1-.147-.348c.001-.133.054-.251.157-.355.103-.097.221-.147.351-.15s.248.047.351.15l4.227 4.227a.55.55 0 0 1 .132.197.64.64 0 0 1 .039.224.64.64 0 0 1-.039.224.55.55 0 0 1-.132.198l-4.227 4.227c-.092.092-.207.139-.343.142a.5.5 0 0 1-.36-.142.49.49 0 0 1 0-.713L8.085 6z" fill="#000"/></svg>
